packages/bezier-icons/icons/headset-off.svg

<svg width="24" height="24" viewBox="0 0 24 24" fill="none" xmlns="http://www.w3.org/2000/svg">
<path fill-rule="evenodd" clip-rule="evenodd" d="M17.996 10.2532C17.996 6.94416 15.305 4.25316 11.996 4.25316C10.372 4.25316 8.90905 4.91316 7.82905 5.96516L14.996 13.1322V11.7532C14.996 10.9262 15.669 10.2532 16.496 10.2532H17.996ZM19.996 17.2532C19.996 17.4982 19.898 17.7142 19.752 17.8882L21.5416 19.6771C21.9323 20.0676 21.932 20.7012 21.5414 21.0917C21.1509 21.4823 20.5174 21.4826 20.1269 21.092L3.15705 4.12125C2.76656 3.73074 2.76656 3.09762 3.15707 2.70711C3.54752 2.31666 4.18055 2.3166 4.57109 2.70698L6.40901 4.54417C7.85001 3.12917 9.82101 2.25317 11.996 2.25317C16.407 2.25317 19.996 5.84217 19.996 10.2532V17.2532ZM5.99603 18.2532V19.2532C5.99603 19.8042 6.44503 20.2532 6.99603 20.2532H10.996C11.5483 20.2532 11.996 20.7009 11.996 21.2532C11.996 21.8055 11.5483 22.2532 10.996 22.2532H6.99603C5.34203 22.2532 3.99603 20.9072 3.99603 19.2532V10.2532C3.99603 9.11319 4.23903 8.03119 4.67103 7.04919L6.23103 8.60919C6.08103 9.13218 5.99603 9.68219 5.99603 10.2532H7.49603C8.32303 10.2532 8.99603 10.9262 8.99603 11.7532V16.7532C8.99603 17.5802 8.32303 18.2532 7.49603 18.2532H5.99603Z" fill="#313234"/>
</svg>

<svg xmlns="http://www.w3.org/2000/svg" width="24" height="24" fill="none" viewBox="0 0 24 24"><path fill="#313234" fill-rule="evenodd" d="M17.996 10.253c0-3.309-2.691-6-6-6-1.624 0-3.087.66-4.167 1.712l7.167 7.167v-1.379c0-.827.673-1.5 1.5-1.5zm2 7a.98.98 0 0 1-.244.635l1.79 1.79a1 1 0 0 1-1.415 1.414L3.157 4.122a1 1 0 0 1 1.414-1.415L6.41 4.544a7.95 7.95 0 0 1 5.587-2.29c4.411 0 8 3.588 8 8zm-14 1v1c0 .551.449 1 1 1h4a1 1 0 1 1 0 2h-4c-1.654 0-3-1.346-3-3v-9c0-1.14.243-2.222.675-3.204l1.56 1.56a6 6 0 0 0-.235 1.644h1.5c.827 0 1.5.673 1.5 1.5v5c0 .827-.673 1.5-1.5 1.5z" clip-rule="evenodd"/></svg>
